X:1
T:There’s Room at the Cross for You
T:There’s Room at the Cross for You
T:Robert G. Jolly
T:Robert G. Jolly, 1915
T:Public Domain Courtesy of the Cyber Hymnal™
T:Public Domain Courtesy of the Cyber Hymnal™
C:Robert G. Jolly
Z:Public Domain
Z:Courtesy of the Cyber Hymnal™
%%score ( 1 2 ) ( 3 4 )
L:1/8
Q:1/4=102
M:4/4
K:Bb
V:1 treble 
V:2 treble 
V:3 bass 
V:4 bass 
V:1
 [DF]2 | [DF]>[CE] [B,D]>[CE] [DF]2 [EG]2 | [FB]6 ([FB]>[FB]) | [GB]>[GB] [GB]>[GB] [EG]2 [EB]2 | %4
w: 1.~The|Sav- ior and the sin- ner|meet At~the *|bless- èd cross of Cal- va-|
w: 2.~Does|not there come a sense of|guilt? And *|do you feel your- self con-|
w: 3.~O|can’t you hear the Sav- ior’s|call, As *|there He hangs up- on the|
 [DF]6 [DF]2 | [EF]2 [EA]2 [EA]2 [EG]2 | [DF]2 [DB]2 [DB]2 [FB]2 | [=Ec]2 [Ec][EB] [EA]2 [EB]2 | %8
w: ry; Just|lay your sins at|Je- sus’ feet; There’s|room at the cross for|
w: demned? For|your re- demp- tion|blood was spilt; There’s|room at the cross for|
w: tree? From|off your heart He’ll|lift sin’s pall; There’s|room at the cross for|
 c6 ||"^Refrain" [EF]2 | [DF]2 [DF]>[DF] [DF]2 [FB]2 | d6 [^Fc]2 | [GB]2 [GB]>[GB] [FA]2 [EG]2 | %13
w: you.|||||
w: you.|There’s|room at the cross for|you, There’s|room at the cross for|
w: you.|||||
 (z2 [B,D]>)[CE] x6 | [DF]>[^C=E] [DF]>[_EG] [DF]2 [FB]>[F^c] | %15
w: ||
w: * you;|Make sur- ren- der full, com- plete,|
w: ||
 [Fd]>[=E^c] [Fd]>[F_e] !fermata![Ff]2 [Geg]2 | [Fdf]2 [Fdf]>[Fdf] [Fdf]2 [Ece]2 | z2 x8 |] %18
w: |||
w: Lay your sins at Je- sus’|feet; There’s room at the||
w: |||
V:2
 x2 | x8 | x8 | x8 | x8 | x8 | x8 | x8 | (F2 =E2 _E2) || x2 | x8 | (^F2 F2 G2) x2 | x8 | %13
 ([DF]6 D2 D2) | x8 | x8 | x8 | [DBd]6 E2 D2 |] %18
V:3
 [B,,B,]2 | [B,,B,]>[B,,B,] [B,,F,]>[B,,F,] [B,,B,]2 [E,B,]2 | [D,B,]6 ([D,B,]>[D,B,]) | %3
w: ~|~ ~ ~ ~ ~ ~|~ ~ *|
 [E,E]>[E,E] [E,E]>[E,E] [E,B,]2 [G,B,]2 | B,6 B,2 | [F,A,]2 [F,C]2 [F,C]2 [F,A,]2 | %6
w: ~ ~ ~ ~ ~ ~|~ ~|~ ~ ~ ~|
 [B,,B,]2 [B,,F,]2 [B,,F,]2 [D,B,]2 | [C,B,]2 [C,B,][C,G,] [C,C]2 [C,C]2 | %8
w: ~ ~ ~ ~|~ ~ ~ ~ ~|
 ([F,A,]2 [G,B,]2 [F,A,]2) || [A,C]2 | B,2 [B,,B,]>[B,,B,] [B,,B,]2 [D,B,]2 | %11
w: ~ * *|~|~ ~ ~ ~ ~|
 B,2 [A,C]2 [G,B,]2 [D,A,]2 | [E,G,]2 [E,B,]>[E,B,] [E,B,]2 [E,B,]2 | %13
w: ~ for you; ~|~ ~ ~ ~ ~|
 z2 [B,,B,]2 [B,,B,]2 [B,,F,]>[B,,F,] x2 | [B,,B,]>[B,,B,] [B,,B,]>[B,,B,] [B,,B,]2 [D,B,]>[C,A,] | %15
w: ~ for you; ~|* ~ ~ ~ ~ ~ ~|
 [B,,B,]>[B,,B,] [B,,B,]>[C,A,] [D,B,]2 [E,B,]2 | [F,B,]2 [F,B,]>[F,B,] [F,A,]2 [F,A,]2 | %17
w: ~ ~ ~ ~ ~ ~|~ ~ ~ ~ ~|
 z2 G,2 F,2 x4 |] %18
w: ~ ~|
V:4
 x2 | x8 | x8 | x8 | B,6 B,2 | x8 | x8 | x8 | x6 || x2 | B,2 x6 | B,2 x6 | x8 | [B,,B,]6 x4 | x8 | %15
 x8 | x8 | [B,,F,B,]6 x4 |] %18

